**kern	**kern	**dynam
*part1	*part1	*part1
*staff2	*staff1	*
*I"Piano	*	*
*clefF4	*clefG2	*
*k[f#c#g#d#]	*k[f#c#g#d#]	*
=1	=1	=1
8BB]	8G#] 8e]	.
8r	8r	.
8r	8r	.
4r;	4r;	.
*clefG2	*	*
8e' 8g# 8b	8cc#' 8ee 8gg#	pp
=	=	=
4e' 4a 4cc#	4ee' 4aa 4ccc#	.
8e' 8b 8dd#	8ff#' 8aa 8bb 8ddd#	.
4e' 4b 4ee	4gg#' 4bb 4eee	.
8e' 8g# 8b	8ee' 8gg# 8bb	.
=	=	=
4e 4a 4cc#	4.ee 4.aa 4.ccc#	.
8A	.	.
4e 4g# 4b	4.ee 4.gg# 4.bb	.
8E	.	.
=	=	=
4c# 4e 4a	4.cc# 4.ee 4.aa	.
8F#	.	.
4r	4r	.
8r	8r	.
=	=	=
4d# 4f# 4b	4.dd# 4.ff# 4.bb	.
*clefF4	*	*
8BB	.	.
4r	4r	.
8r	8r	.
=	=	=
4B 4e 4g#	4.b 4.ee 4.gg#	.
8E	.	.
4r	4r	.
8r	8r	.
=	=	=
*^	*	*
2.D# 2.F# 2.B	8rGG	2.d# 2.f# 2.b	.
.	8rGG	.	.
.	8BBB	.	.
.	4rGG	.	.
.	8rGG	.	.
=	=	=	=
2.BB 2.E 2.G#	8rGG	2.B 2.e 2.g#	.
.	8rGG	.	.
.	8EE	.	.
.	4rGG	.	.
.	8rGG	.	.
=	=	=	=
2.BB 2.E 2.G#	8rGG	2.B 2.e 2.g#	.
.	8rGG	.	.
.	8EE	.	.
.	4rGG	.	.
.	8rGG	.	.
=	=	=	=
2.BB; 2.E 2.G#	8rGG	2.B; 2.e 2.g#	.
.	8rGG	.	.
.	8EE	.	.
.	4rGG	.	.
.	8rGG;	.	.
*v	*v	*	*
==	==	==
*-	*-	*-
!!!system-decoration: {(s1,s2)}
